X:32
T:Hands Around 
B:HOC.090
F:file ID hoc/32hands
Z:bill@capeirish.com
Y:"jig". Note 16-measure structure; repeat of
A part is my idea.
Q:160
M:6/8
L:1/8
R:jig
K:D
A|d2d dAF|B3 c2d|e2e ecA |1 d3 f2 :|2 d2z d2 ||
|:e|f2g eef|d2e c2c|Bcd c2F |1 B3 d2 :|2 B2z A2 ||
P:repeat of Part A
|:A|d2d dAF|B3 c2d|e2e ecA |1 d3 f2 :|2 d2z d3-|d6|]

